src/icons/github.svg

<svg viewBox="0 0 24 24" fill="none" xmlns="http://www.w3.org/2000/svg">
<path fill-rule="evenodd" clip-rule="evenodd" d="M12.0002 4C7.4684 4 3.79785 7.67055 3.79785 12.2024C3.79785 15.8319 6.14577 18.8975 9.40621 19.9843C9.81633 20.0561 9.97012 19.81 9.97012 19.5947C9.97012 19.3999 9.95987 18.754 9.95987 18.067C7.89903 18.4464 7.36587 17.5646 7.20183 17.1033C7.10955 16.8674 6.70969 16.1395 6.36109 15.9447C6.074 15.7909 5.66389 15.4115 6.35083 15.4013C6.99677 15.391 7.45815 15.9959 7.61194 16.242C8.35016 17.4826 9.52924 17.134 10.0009 16.9187C10.0726 16.3855 10.288 16.0267 10.5238 15.8216C8.69876 15.6166 6.79171 14.9091 6.79171 11.7717C6.79171 10.8797 7.10955 10.1415 7.63245 9.56735C7.55043 9.36229 7.26334 8.52155 7.71447 7.39372C7.71447 7.39372 8.40142 7.17841 9.97012 8.23446C10.6263 8.04991 11.3235 7.95763 12.0207 7.95763C12.7179 7.95763 13.4151 8.04991 14.0713 8.23446C15.64 7.16816 16.3269 7.39372 16.3269 7.39372C16.7781 8.52155 16.491 9.36229 16.409 9.56735C16.9319 10.1415 17.2497 10.8695 17.2497 11.7717C17.2497 14.9194 15.3324 15.6166 13.5074 15.8216C13.8047 16.078 14.061 16.5701 14.061 17.3391C14.061 18.4361 14.0508 19.3179 14.0508 19.5947C14.0508 19.81 14.2046 20.0664 14.6147 19.9843C17.8546 18.8975 20.2026 15.8216 20.2026 12.2024C20.2026 7.67055 16.532 4 12.0002 4Z" fill="currentColor"/>
</svg>

<svg viewBox="0 0 24 24" fill="none" xmlns="http://www.w3.org/2000/svg"><path fill-rule="evenodd" clip-rule="evenodd" d="M12 4a8.2 8.2 0 0 0-8.202 8.202 8.197 8.197 0 0 0 5.608 7.782c.41.072.564-.174.564-.39 0-.194-.01-.84-.01-1.527-2.061.38-2.594-.502-2.758-.964-.092-.236-.492-.963-.84-1.158-.288-.154-.698-.534-.011-.544.646-.01 1.107.595 1.26.841.74 1.24 1.918.892 2.39.677.072-.534.287-.892.523-1.097-1.825-.205-3.732-.913-3.732-4.05 0-.892.318-1.63.84-2.205-.082-.205-.369-1.045.082-2.173 0 0 .687-.216 2.256.84a7.611 7.611 0 0 1 2.05-.276c.698 0 1.395.092 2.051.276 1.569-1.066 2.256-.84 2.256-.84.451 1.128.164 1.968.082 2.173.523.575.84 1.303.84 2.205 0 3.147-1.917 3.845-3.742 4.05.298.256.554.748.554 1.517 0 1.097-.01 1.979-.01 2.256 0 .215.154.471.564.39a8.215 8.215 0 0 0 5.588-7.783A8.2 8.2 0 0 0 12 4z" fill="currentColor"/></svg>
